X: 11217
T: Durang's
R: hornpipe
M: 4/4
K: Dmajor
|:D2 FA D2 FA|BAdA BAFA|(D2D)F DF DF|A,ECE A,ECE|
D2 FA D2DA|BAdA BAFA|dfaf bgec|1 d2dcd2 E/F/E:|2 d2dcd2 A/B/d||
|:fz fe fedc|B/c/dBA BAGF|EeeE edcB|(A2A)F GFED|
AGAB =cBcd|edef gfef|dfad bgec|1 d2dcd2 A/B/d:|2 d2dcd2 E/F/E||

